images/partners/logos/4linux.svg

<svg fill="none" height="171" viewBox="0 0 705 171" width="705" xmlns="http://www.w3.org/2000/svg" xmlns:xlink="http://www.w3.org/1999/xlink"><clipPath id="a"><path d="m0 0h705v170.6h-705z"/></clipPath><g clip-path="url(#a)" fill="#fff"><path d="m91.5 25.4-46.9 32.3h40.6zm16 32.2h16.4l-4.4 22.3h-16.3l-4.4 21.8h-22.2l4.3-21.9h-70.3l5.2-27.4 73-49.50001h29.5z"/><path d="m128.9 92.1-1.8 9.2h86.7l1.7-9.2zm503.7-.1-1.8 9.4h55l1.8-9.4zm-67.9 0-1.7 9.4h54.9l1.7-9.4zm-107.3 0c6.4 5.1 15.9 8.5 26.4 9.5h12c10.5-1 20.3-4.5 27.6-9.5zm-230.4-.1-1.8 9.5h55.1l1.8-9.5zm143.4-.2 5.9 9.8h40l1.9-9.8zm-75.2 0-1.9 9.8h42.3l1.9-9.8zm-163.7-12.7-1.9 9.5h86.5l1.8-9.5zm503.6-.2-1.8 9.4h54.9l1.8-9.4zm-68 0-1.7 9.4h55l1.7-9.4zm-117.9 0c.4 3.4 2 6.7 4.4 9.5h74.3c3.1-2.9 5.5-6.1 7-9.5zm-219.7 0-1.8 9.5h55.1l1.8-9.5zm133-.2 5.9 9.7h50.3l1.8-9.7zm-64.8 0-1.9 9.7h42.4l1.9-9.7zm-97.9-12.8-1.8 9.5h20.6l1.8-9.5zm-49.3 0-1.9 9.5h24c.1-.3 1.2-5.8 1.9-9.5zm484.1-.1 9.4 9.4h30.6l-8.3-9.4zm-40.6 0-13.2 9.4h35.4l13.5-9.4zm-79.8 0c-.8 4-3.5 7.3-7.3 9.5h29.3c.1-.4.2-.7.2-1.1l1.7-8.4zm-63 0-2 9.5h30.3c-2.9-1.9-4.5-4.7-4-8.5l.1-1zm-204.4 0-1.8 9.5h24c.6-3.3 1.1-6.4 1.7-9.5zm107.8-.2 5.9 9.8h42.5c.3-1.6 1.3-6.2 2-9.8zm-35 0c-.6 3.1-1.2 6.4-1.9 9.8h23.1l2-9.8zm-166.4-12.8-1.9 9.5h24c.7-3.5 1-5.2 1.9-9.5zm459.5-.1-1.6 1-11.8 8.4h63.7l-8.3-9.4zm-96.1 0-1.8 9.5h24l1.9-9.5zm-62.7 0-2 9.5h24.3l1.8-9.5zm-204.5 0-1.8 9.5h23.9c.6-3.2 1.2-6.4 1.8-9.5zm97.3-.2 5.9 9.8h53c.8-4 1.1-5.2 2-9.8h-24.1l-2 9.7-5.6-9.7zm-24.5 0c-.6 3.2-1.3 6.5-2 9.8h23.2l1.9-9.8zm-166.5-12.9c-1.2 6.3-1.6 8.4-1.6 8.4l-.2 1.1h23.9c.6-3.2 1.2-6.3 1.8-9.5zm450.7-.1 11.7 9.4h35.3l13.3-9.4zm-87.3 0-1.8 9.5h24.1l1.9-9.5zm-62.4 0-2 9.5h24l1.8-9.5zm-204.8 0-1.8 9.5h23.9c.6-3.1 1.3-6.3 1.9-9.5zm134.3-.1-2 9.8h24.1c.7-3.4 1.4-6.7 2-9.8zm-61.5 0c-.7 3.3-1.3 6.6-1.9 9.8h51.1l-5.7-9.8zm-234.9-12.3-5.6 28.4h-35.8zm68.4-.7c-.7 3.7-1.3 7-1.7 9.5h23.9c.6-3.3 1.2-6.6 1.8-9.5zm96.2 0-1.8 9.5h23.9c.6-3.1 1.1-6.2 1.7-9.5zm335.6 0 11.7 9.4h70.4l13.3-9.4h-38.1l-10.6 8.2-8.4-8.2zm-68.5 0-1.8 9.6h24.2l1.9-9.6zm-62.1 0-2 9.6h23.7l1.8-9.6zm-70.6 0-2 9.8h24.1c.9-4.6 1.5-7.7 2-9.8zm-61.5 0c-.7 3.4-1.3 6.6-1.9 9.8h40.9l-5.7-9.8zm-234-4.6-2.4 1.7-46.9 32.3-3.2 2.2h3.8l40.6-.1h1l.2-1 6.3-32.3zm149.1-8.5-1.8 9.5h54.9l1.9-9.5zm404.8 0-1.8 9.4h55.4l1.8-9.4zm-67.9 0-1.8 9.4h55.1l1.7-9.4zm-68.1 0-1.7 9.5h55.3l1.8-9.5zm-66.4 0-1.7 9.5h55.2l1.8-9.5zm-299.6 0-1.7 9.5h54.7l1.8-9.5zm246.3-.1-2 9.8h41l2-9.8zm-81.2 0-1.9 9.8h50.2l-5.7-9.8zm-221.1-9.9h27.6l-10.4 53.2-.3 1.4h1.5 15l-4 20h-15.3-1l-.2.9-4.2 20.9h-19.8l4-20.5.3-1.4h-1.4-68.9l4.8-25.5zm-.8-2.4-.3.2-72.9 49.5-.4.3-.1.5-5.19999 27.4-.3 1.4h1.39999 68.9l-4 20.5-.2 1.4h1.4 22.1 1l.2-.9 4.3-20.9h15.3 1l.2-1 4.4-22.3.2-1.4h-1.4-15l10.4-53.2.3-1.4h-1.5-29.4-.4zm156.5-.7-1.8 9.5h55l1.9-9.5zm404.7-.1-1.8 9.4h55.4l1.8-9.4zm-67.8 0-1.8 9.4h55.1l1.8-9.4zm-68.3 0-1.7 9.5h55.4l1.8-9.5zm-66.4 0-1.7 9.5h55.4l1.8-9.5zm-53 0-2 9.8h40.9l2-9.8zm-81.2 0-1.9 9.8h40.1l-5.7-9.8zm-165.3 0-1.8 9.5h54.7l1.8-9.5z"/><path d="m.4 118.3-.4 4.1h697.3l.4-4.1z"/><path d="m668.159 166.4s3.06 4.2 9.86 4.2c6.4 0 10.923-4.1 11.804-9.1 1.834-10.4-14.083-8.6-12.902-15.3.441-2.5 3.229-4.7 6.629-4.7 4.1 0 6.506 2.8 6.506 2.8l2.653-3.7s-2.536-3.2-8.536-3.2-11.106 4-11.987 9c-1.746 9.9 14.119 8.4 12.902 15.3-.529 3-3.329 4.7-6.329 4.7-4.8 0-7.583-3.5-7.583-3.5zm-19.852 3.7h4.5l4.972-28.2h11l.688-3.9h-26.5l-.688 3.9h11zm-35.048-3.7s3.06 4.2 9.86 4.2c6.4 0 10.923-4.1 11.804-9.1 1.834-10.4-14.083-8.6-12.902-15.3.441-2.5 3.229-4.7 6.629-4.7 4.1 0 6.506 2.8 6.506 2.8l2.652-3.7s-2.535-3.2-8.535-3.2-11.106 4-11.987 9c-1.746 9.9 14.119 8.4 12.902 15.3-.529 3-3.329 4.7-6.329 4.7-4.8 0-7.583-3.5-7.583-3.5zm-12.952 3.7h4.5l5.66-32.1h-4.5zm-25.6 0h18.9l.688-3.9h-14.4l4.972-28.2h-4.5zm-11 0h4.7l-5.94-32.1h-4.7l-17.26 32.1h4.6l4.822-9.2h12.1zm-4.316-27.7s.189 2.9.407 4.5l1.701 10.2h-9.7l5.399-10.2c.882-1.6 2.093-4.5 2.193-4.5zm-29.584 27.7h4.5l5.66-32.1h-4.5zm-33.726-16.3c-1.657 9.4 3.838 16.8 13.438 16.8 8.1 0 13.399-5.1 13.399-5.1l-1.836-3.2s-4.64 4.2-10.64 4.2c-7.1 0-10.878-5.8-9.661-12.7 1.199-6.8 6.869-12.3 14.069-12.3 5.5 0 8.683 3.5 8.683 3.5l2.799-3.4s-3.259-4.2-10.959-4.2c-9.4 0-17.652 7.1-19.292 16.4zm-27.974 16.3h19.4l.688-3.9h-14.9l1.816-10.3h11.5l.687-3.9h-11.5l1.781-10.1h14.1l.688-3.9h-18.6zm-29.1 0h4.5l2.098-11.9h7.2c5.9 0 10.823-4.1 11.899-10.2 1.075-6.1-2.419-10.1-8.319-10.1h-11.7zm7.286-15.8 2.186-12.4h6.5c3.8 0 5.795 2.3 5.125 6.1-.688 3.9-3.511 6.3-7.311 6.3zm-35.534 12.1s3.06 4.2 9.86 4.2c6.4 0 10.923-4.1 11.804-9.1 1.834-10.4-14.083-8.6-12.902-15.3.441-2.5 3.229-4.7 6.629-4.7 4.1 0 6.506 2.8 6.506 2.8l2.653-3.7s-2.536-3.2-8.536-3.2-11.106 4-11.987 9c-1.746 9.9 14.119 8.4 12.902 15.3-.529 3-3.329 4.7-6.329 4.7-4.8 0-7.583-3.5-7.583-3.5zm-40.852 3.7h19.4l.688-3.9h-14.9l1.816-10.3h11.5l.687-3.9h-11.5l1.781-10.1h14.1l.688-3.9h-18.6zm-30.6 0h4.5l2.257-12.8h6.9l4.543 12.8h5.1l-4.596-12.5c-.424-1-.736-1.5-.736-1.5l.018-.1c3.694-1.1 6.611-4.6 7.334-8.7.741-4.2-.777-7.5-3.866-8.7-1.112-.5-2.476-.7-5.876-.7h-9.8zm7.445-16.7 2.027-11.5h5.2c2.5 0 3.447.3 4.277.7 1.441.9 2.041 2.6 1.618 5-.635 3.6-3.222 5.8-6.722 5.8zm-18.445 16.7h4.7l-5.94-32.1h-4.7l-17.26 32.1h4.6l4.822-9.2h12.1zm-4.316-27.7s.189 2.9.407 4.5l1.701 10.2h-9.7l5.399-10.2c.882-1.6 2.093-4.5 2.193-4.5zm-37.706-4.5-10.462 23.6c-.817 1.8-1.299 3.4-1.299 3.4h-.1s.1-1.7-.001-3.4l-1.538-23.6h-4.6l2.54 32.1h5.2l9.167-20.8c.853-2 1.794-4.5 1.794-4.5h.1s-.041 2.5.206 4.5l1.833 20.8h5.2l14.06-32.1h-4.6l-10.062 23.6c-.799 1.7-1.199 3.4-1.199 3.4h-.1s.082-1.6-.101-3.4l-2.138-23.6zm-42.378 32.2h4.5l4.972-28.2h11l.688-3.9h-26.5l-.688 3.9h11zm-32.1 0h4.5l2.416-13.7h11.2l.687-3.9h-11.2l1.869-10.6h13.2l.688-3.9h-17.7zm-38.226-16.3c-1.675 9.5 4.238 16.8 13.538 16.8s17.805-7.4 19.462-16.8c1.622-9.2-4.308-16.4-13.608-16.4s-17.752 7.1-19.392 16.4zm4.7 0c1.234-7 7.469-12.3 14.069-12.3s10.865 5.3 9.631 12.3c-1.27 7.2-7.539 12.7-14.039 12.7s-10.931-5.5-9.661-12.7zm-33.522 12.6s3.06 4.2 9.86 4.2c6.4 0 10.923-4.1 11.804-9.1 1.834-10.4-14.083-8.6-12.902-15.3.441-2.5 3.229-4.7 6.629-4.7 4.1 0 6.506 2.8 6.506 2.8l2.653-3.7s-2.536-3.2-8.536-3.2-11.106 4-11.987 9c-1.746 9.9 14.119 8.4 12.902 15.3-.529 3-3.329 4.7-6.329 4.7-4.8 0-7.583-3.5-7.583-3.5zm-49.3521 3.7h4.5l3.6671-20.8c.318-1.8.529-4.7.529-4.7h.1s.989 2.9 1.871 4.7l10.633 20.8h4.4l5.66-32.1h-4.5l-3.685 20.9c-.318 1.8-.511 4.6-.511 4.6h-.1s-.989-2.9-1.889-4.6l-10.615-20.9h-4.5l-5.6601 32.1zm-27.5 0h19.4l.6877-3.9h-14.9l1.8161-10.3h11.5l.6877-3.9h-11.5l1.7809-10.1h14.1l.6877-3.9h-18.6zm-29.2 0h4.5l2.0983-11.9h7.2c5.9 0 10.8229-4.1 11.8985-10.2s-2.4191-10.1-8.3191-10.1h-11.7zm7.286-15.8 2.1864-12.4h6.5c3.8 0 5.7945 2.3 5.1244 6.1-.6877 3.9-3.5108 6.3-7.3108 6.3zm-45.411874-.5c-1.675096 9.5 4.237714 16.8 13.537674 16.8 9.3 0 17.8049-7.4 19.4623-16.8 1.6222-9.2-4.3082-16.4-13.6082-16.4s-17.75194 7.1-19.391774 16.4zm4.599994 0c1.23429-7 7.46878-12.3 14.06878-12.3 6.5 0 10.8655 5.3 9.6312 12.3-1.2695 7.2-7.5393 12.7-14.0393 12.7-6.50002 0-10.93023-5.5-9.66068-12.7z"/></g></svg>

<svg width="705" height="171" viewBox="0 0 705 171" fill="none" xmlns="http://www.w3.org/2000/svg">
<g clip-path="url(#clip0)">
<path d="M91.5 25.4L44.6 57.7H85.2L91.5 25.4ZM107.5 57.6H123.9L119.5 79.9H103.2L98.8 101.7H76.6L80.9 79.8H10.6L15.8 52.4L88.8 2.89999H118.3L107.5 57.6Z" fill="white"/>
<path d="M128.9 92.1L127.1 101.3H213.8L215.5 92.1H128.9ZM632.6 92L630.8 101.4H685.8L687.6 92H632.6ZM564.7 92L563 101.4H617.9L619.6 92H564.7ZM457.4 92C463.8 97.1 473.3 100.5 483.8 101.5H495.8C506.3 100.5 516.1 97 523.4 92H457.4ZM227 91.9L225.2 101.4H280.3L282.1 91.9H227ZM370.4 91.7L376.3 101.5H416.3L418.2 91.7H370.4ZM295.2 91.7L293.3 101.5H335.6L337.5 91.7H295.2ZM131.5 79L129.6 88.5H216.1L217.9 79H131.5ZM635.1 78.8L633.3 88.2H688.2L690 78.8H635.1ZM567.1 78.8L565.4 88.2H620.4L622.1 78.8H567.1ZM449.2 78.8C449.6 82.2 451.2 85.5 453.6 88.3H527.9C531 85.4 533.4 82.2 534.9 78.8H449.2ZM229.5 78.8L227.7 88.3H282.8L284.6 78.8H229.5ZM362.5 78.6L368.4 88.3H418.7L420.5 78.6H362.5ZM297.7 78.6L295.8 88.3H338.2L340.1 78.6H297.7ZM199.8 65.8L198 75.3H218.6L220.4 65.8H199.8ZM150.5 65.8L148.6 75.3H172.6C172.7 75 173.8 69.5 174.5 65.8H150.5ZM634.6 65.7L644 75.1H674.6L666.3 65.7H634.6ZM594 65.7L580.8 75.1H616.2L629.7 65.7H594ZM514.2 65.7C513.4 69.7 510.7 73 506.9 75.2H536.2C536.3 74.8 536.4 74.5 536.4 74.1L538.1 65.7H514.2ZM451.2 65.7L449.2 75.2H479.5C476.6 73.3 475 70.5 475.5 66.7L475.6 65.7H451.2ZM246.8 65.7L245 75.2H269C269.6 71.9 270.1 68.8 270.7 65.7H246.8ZM354.6 65.5L360.5 75.3H403C403.3 73.7 404.3 69.1 405 65.5H354.6ZM319.6 65.5C319 68.6 318.4 71.9 317.7 75.3H340.8L342.8 65.5H319.6ZM153.2 52.7L151.3 62.2H175.3C176 58.7 176.3 57 177.2 52.7H153.2ZM612.7 52.6L611.1 53.6L599.3 62H663L654.7 52.6H612.7ZM516.6 52.6L514.8 62.1H538.8L540.7 52.6H516.6ZM453.9 52.6L451.9 62.1H476.2L478 52.6H453.9ZM249.4 52.6L247.6 62.1H271.5C272.1 58.9 272.7 55.7 273.3 52.6H249.4ZM346.7 52.4L352.6 62.2H405.6C406.4 58.2 406.7 57 407.6 52.4H383.5L381.5 62.1L375.9 52.4H346.7ZM322.2 52.4C321.6 55.6 320.9 58.9 320.2 62.2H343.4L345.3 52.4H322.2ZM155.7 39.5C154.5 45.8 154.1 47.9 154.1 47.9L153.9 49H177.8C178.4 45.8 179 42.7 179.6 39.5H155.7ZM606.4 39.4L618.1 48.8H653.4L666.7 39.4H606.4ZM519.1 39.4L517.3 48.9H541.4L543.3 39.4H519.1ZM456.7 39.4L454.7 48.9H478.7L480.5 39.4H456.7ZM251.9 39.4L250.1 48.9H274C274.6 45.8 275.3 42.6 275.9 39.4H251.9ZM386.2 39.3L384.2 49.1H408.3C409 45.7 409.7 42.4 410.3 39.3H386.2ZM324.7 39.3C324 42.6 323.4 45.9 322.8 49.1H373.9L368.2 39.3H324.7ZM89.8 27L84.2 55.4H48.4L89.8 27ZM158.2 26.3C157.5 30 156.9 33.3 156.5 35.8H180.4C181 32.5 181.6 29.2 182.2 26.3H158.2ZM254.4 26.3L252.6 35.8H276.5C277.1 32.7 277.6 29.6 278.2 26.3H254.4ZM590 26.3L601.7 35.7H672.1L685.4 26.3H647.3L636.7 34.5L628.3 26.3H590ZM521.5 26.3L519.7 35.9H543.9L545.8 26.3H521.5ZM459.4 26.3L457.4 35.9H481.1L482.9 26.3H459.4ZM388.8 26.3L386.8 36.1H410.9C411.8 31.5 412.4 28.4 412.9 26.3H388.8ZM327.3 26.3C326.6 29.7 326 32.9 325.4 36.1H366.3L360.6 26.3H327.3ZM93.3 21.7L90.9 23.4L44 55.7L40.8 57.9H44.6L85.2 57.8H86.2L86.4 56.8L92.7 24.5L93.3 21.7ZM242.4 13.2L240.6 22.7H295.5L297.4 13.2H242.4ZM647.2 13.2L645.4 22.6H700.8L702.6 13.2H647.2ZM579.3 13.2L577.5 22.6H632.6L634.3 13.2H579.3ZM511.2 13.2L509.5 22.7H564.8L566.6 13.2H511.2ZM444.8 13.2L443.1 22.7H498.3L500.1 13.2H444.8ZM145.2 13.2L143.5 22.7H198.2L200 13.2H145.2ZM391.5 13.1L389.5 22.9H430.5L432.5 13.1H391.5ZM310.3 13.1L308.4 22.9H358.6L352.9 13.1H310.3ZM89.2 3.2H116.8L106.4 56.4L106.1 57.8H107.6H122.6L118.6 77.8H103.3H102.3L102.1 78.7L97.9 99.6H78.1L82.1 79.1L82.4 77.7H81H12.1L16.9 52.2L89.2 3.2ZM88.4 0.8L88.1 1L15.2 50.5L14.8 50.8L14.7 51.3L9.50001 78.7L9.20001 80.1H10.6H79.5L75.5 100.6L75.3 102H76.7H98.8H99.8L100 101.1L104.3 80.2H119.6H120.6L120.8 79.2L125.2 56.9L125.4 55.5H124H109L119.4 2.3L119.7 0.9H118.2H88.8H88.4V0.8ZM244.9 0.1L243.1 9.6H298.1L300 0.1H244.9ZM649.6 0L647.8 9.4H703.2L705 0H649.6ZM581.8 0L580 9.4H635.1L636.9 0H581.8ZM513.5 0L511.8 9.5H567.2L569 0H513.5ZM447.1 0L445.4 9.5H500.8L502.6 0H447.1ZM394.1 0L392.1 9.8H433L435 0H394.1ZM312.9 0L311 9.8H351.1L345.4 0H312.9ZM147.6 0L145.8 9.5H200.5L202.3 0H147.6Z" fill="white"/>
<path d="M0.4 118.3L0 122.4H697.3L697.7 118.3H0.4Z" fill="white"/>
<path d="M668.159 166.4C668.159 166.4 671.219 170.6 678.019 170.6C684.419 170.6 688.942 166.5 689.823 161.5C691.657 151.1 675.74 152.9 676.921 146.2C677.362 143.7 680.15 141.5 683.55 141.5C687.65 141.5 690.056 144.3 690.056 144.3L692.709 140.6C692.709 140.6 690.173 137.4 684.173 137.4C678.173 137.4 673.067 141.4 672.186 146.4C670.44 156.3 686.305 154.8 685.088 161.7C684.559 164.7 681.759 166.4 678.759 166.4C673.959 166.4 671.176 162.9 671.176 162.9L668.159 166.4ZM648.307 170.1H652.807L657.779 141.9H668.779L669.467 138H642.967L642.279 141.9H653.279L648.307 170.1ZM613.259 166.4C613.259 166.4 616.319 170.6 623.119 170.6C629.519 170.6 634.042 166.5 634.923 161.5C636.757 151.1 620.84 152.9 622.021 146.2C622.462 143.7 625.25 141.5 628.65 141.5C632.75 141.5 635.156 144.3 635.156 144.3L637.808 140.6C637.808 140.6 635.273 137.4 629.273 137.4C623.273 137.4 618.167 141.4 617.286 146.4C615.54 156.3 631.405 154.8 630.188 161.7C629.659 164.7 626.859 166.4 623.859 166.4C619.059 166.4 616.276 162.9 616.276 162.9L613.259 166.4ZM600.307 170.1H604.807L610.467 138H605.967L600.307 170.1ZM574.707 170.1H593.607L594.295 166.2H579.895L584.867 138H580.367L574.707 170.1ZM563.707 170.1H568.407L562.467 138H557.767L540.507 170.1H545.107L549.929 160.9H562.029L563.707 170.1ZM559.391 142.4C559.391 142.4 559.58 145.3 559.798 146.9L561.499 157.1H551.799L557.198 146.9C558.08 145.3 559.291 142.4 559.391 142.4ZM529.807 170.1H534.307L539.967 138H535.467L529.807 170.1ZM496.081 153.8C494.424 163.2 499.919 170.6 509.519 170.6C517.619 170.6 522.918 165.5 522.918 165.5L521.082 162.3C521.082 162.3 516.442 166.5 510.442 166.5C503.342 166.5 499.564 160.7 500.781 153.8C501.98 147 507.65 141.5 514.85 141.5C520.35 141.5 523.533 145 523.533 145L526.332 141.6C526.332 141.6 523.073 137.4 515.373 137.4C505.973 137.4 497.721 144.5 496.081 153.8ZM468.107 170.1H487.507L488.195 166.2H473.295L475.111 155.9H486.611L487.298 152H475.798L477.579 141.9H491.679L492.367 138H473.767L468.107 170.1ZM439.007 170.1H443.507L445.605 158.2H452.805C458.705 158.2 463.628 154.1 464.704 148C465.779 141.9 462.285 137.9 456.385 137.9H444.685L439.007 170.1ZM446.293 154.3L448.479 141.9H454.979C458.779 141.9 460.774 144.2 460.104 148C459.416 151.9 456.593 154.3 452.793 154.3H446.293ZM410.759 166.4C410.759 166.4 413.819 170.6 420.619 170.6C427.019 170.6 431.542 166.5 432.423 161.5C434.257 151.1 418.34 152.9 419.521 146.2C419.962 143.7 422.75 141.5 426.15 141.5C430.25 141.5 432.656 144.3 432.656 144.3L435.309 140.6C435.309 140.6 432.773 137.4 426.773 137.4C420.773 137.4 415.667 141.4 414.786 146.4C413.04 156.3 428.905 154.8 427.688 161.7C427.159 164.7 424.359 166.4 421.359 166.4C416.559 166.4 413.776 162.9 413.776 162.9L410.759 166.4ZM369.907 170.1H389.307L389.995 166.2H375.095L376.911 155.9H388.411L389.098 152H377.598L379.379 141.9H393.479L394.167 138H375.567L369.907 170.1ZM339.307 170.1H343.807L346.064 157.3H352.964L357.507 170.1H362.607L358.011 157.6C357.587 156.6 357.275 156.1 357.275 156.1L357.293 156C360.987 154.9 363.904 151.4 364.627 147.3C365.368 143.1 363.85 139.8 360.761 138.6C359.649 138.1 358.285 137.9 354.885 137.9H345.085L339.307 170.1ZM346.752 153.4L348.779 141.9H353.979C356.479 141.9 357.426 142.2 358.256 142.6C359.697 143.5 360.297 145.2 359.874 147.6C359.239 151.2 356.652 153.4 353.152 153.4H346.752ZM328.307 170.1H333.007L327.067 138H322.367L305.107 170.1H309.707L314.529 160.9H326.629L328.307 170.1ZM323.991 142.4C323.991 142.4 324.18 145.3 324.398 146.9L326.099 157.1H316.399L321.798 146.9C322.68 145.3 323.891 142.4 323.991 142.4ZM286.285 137.9L275.823 161.5C275.006 163.3 274.524 164.9 274.524 164.9H274.424C274.424 164.9 274.524 163.2 274.423 161.5L272.885 137.9H268.285L270.825 170H276.025L285.192 149.2C286.045 147.2 286.986 144.7 286.986 144.7H287.086C287.086 144.7 287.045 147.2 287.292 149.2L289.125 170H294.325L308.385 137.9H303.785L293.723 161.5C292.924 163.2 292.524 164.9 292.524 164.9H292.424C292.424 164.9 292.506 163.3 292.323 161.5L290.185 137.9H286.285ZM243.907 170.1H248.407L253.379 141.9H264.379L265.067 138H238.567L237.879 141.9H248.879L243.907 170.1ZM211.807 170.1H216.307L218.723 156.4H229.923L230.61 152.5H219.41L221.279 141.9H234.479L235.167 138H217.467L211.807 170.1ZM173.581 153.8C171.906 163.3 177.819 170.6 187.119 170.6C196.419 170.6 204.924 163.2 206.581 153.8C208.203 144.6 202.273 137.4 192.973 137.4C183.673 137.4 175.221 144.5 173.581 153.8ZM178.281 153.8C179.515 146.8 185.75 141.5 192.35 141.5C198.95 141.5 203.215 146.8 201.981 153.8C200.711 161 194.442 166.5 187.942 166.5C181.442 166.5 177.011 161 178.281 153.8ZM144.759 166.4C144.759 166.4 147.819 170.6 154.619 170.6C161.019 170.6 165.542 166.5 166.423 161.5C168.257 151.1 152.34 152.9 153.521 146.2C153.962 143.7 156.75 141.5 160.15 141.5C164.25 141.5 166.656 144.3 166.656 144.3L169.309 140.6C169.309 140.6 166.773 137.4 160.773 137.4C154.773 137.4 149.667 141.4 148.786 146.4C147.04 156.3 162.905 154.8 161.688 161.7C161.159 164.7 158.359 166.4 155.359 166.4C150.559 166.4 147.776 162.9 147.776 162.9L144.759 166.4ZM95.4069 170.1H99.9069L103.574 149.3C103.892 147.5 104.103 144.6 104.103 144.6H104.203C104.203 144.6 105.192 147.5 106.074 149.3L116.707 170.1H121.107L126.767 138H122.267L118.582 158.9C118.264 160.7 118.071 163.5 118.071 163.5H117.971C117.971 163.5 116.982 160.6 116.082 158.9L105.467 138H100.967L95.3069 170.1H95.4069ZM67.9069 170.1H87.3069L87.9946 166.2H73.0946L74.9107 155.9H86.4107L87.0984 152H75.5984L77.3793 141.9H91.4793L92.167 138H73.567L67.9069 170.1ZM38.7069 170.1H43.2069L45.3052 158.2H52.5052C58.4052 158.2 63.3281 154.1 64.4037 148C65.4793 141.9 61.9846 137.9 56.0846 137.9H44.3846L38.7069 170.1ZM45.9929 154.3L48.1793 141.9H54.6793C58.4793 141.9 60.4738 144.2 59.8037 148C59.116 151.9 56.2929 154.3 52.4929 154.3H45.9929ZM0.581026 153.8C-1.09407 163.3 4.81874 170.6 14.1187 170.6C23.4187 170.6 31.9236 163.2 33.581 153.8C35.2032 144.6 29.2728 137.4 19.9728 137.4C10.6728 137.4 2.22086 144.5 0.581026 153.8ZM5.18102 153.8C6.41531 146.8 12.6498 141.5 19.2498 141.5C25.7498 141.5 30.1153 146.8 28.881 153.8C27.6115 161 21.3417 166.5 14.8417 166.5C8.34168 166.5 3.91147 161 5.18102 153.8Z" fill="white"/>
</g>
<defs>
<clipPath id="clip0">
<rect width="705" height="170.6" fill="white"/>
</clipPath>
</defs>
</svg>
